!!!COM: Schubert, Franz Peter
!!!CDT: 1797-1828
!!!OTL: Erster Verlust
!!!OPS: Opus 5
!!!ONM: No. 4
!!!SCT: DV 226
!!!YOR: Franz Schubert: Selected songs
!!!PPE: Max Friedlaender
!!!PSR: C.F. Peters 
!!!PSP: Frankfurt, London, New York
!!!PSD: n.d.
!!!PPG: p.93
!!!ODT: 1815///
!!!ONB: This song was transcribed from an edition for medium voice, 
!!!ONB:  where it had been transposed down to d minor.
!!!ONB: It was encoded in d minor, then transposed up to the original key of f minor.
**kern
*M4/4
*MM[Sehr langsam, wehmuetig]
*f:
*k[b-e-a-d-]
=1
4.cc
8cc
4cc
4cc
=2
[2ee-
(8ee-]
8b-)
(8cc
8dd-)
=3
(8.dd-
16cc)
4cc
4r
8.a-
16a-
=4
4ff
8ee-
8dd-
(8cc
8b-)
(8an
8b-)
=5
(4cc
4ff)
4ee-
4r
=6
4.dd-
8dd-
4.dd-
8dd-
=7
4.ee-
8een
(8een
8ff)
4ff
=8
4ff
4ee-
4dd-
4cc
=9
8ee-
8dd-
8b-
8cc
4a-
4r
=10
(2dd-
4cc)
4ff
=11
(4ff
8een)
8dd-
(4dd-
8cc)
8b-
=12
4b-
4an
4r
8an
8an
=13
4.b-
8b-
(8dd-
8ff
16ee-
16ff)
(16cc
16b-)
=14
(8.a-
16g)
4g
4r
4dd-
=15
4cc
8b-
8a-
(8g
8f
8a-)
8f
=16
2cc
2r
=17
4.cc
8cc
4cc
4cc
=18
[2ee-
(8ee-]
8b-)
(8cc
8dd-)
=19
(8.dd-
16cc)
4cc
4r
4cc
=20
4ff
4ee-
4dd-
4cc
=21
(8ee-
8dd-)
(8b-
8cc)
4a-
4r
=22
1r;
==
*-
!!!EMD: Paul von Hippel (1998/10/21/)
!!!EEV: Version 2.0
